X:1
T:He Arose
T:He Arose
T:J. M. Copeland
T:William Clark Martin (1864-1914)
T:Public Domain Courtesy of the Cyber Hymnal™
T:Public Domain Courtesy of the Cyber Hymnal™
C:J. M. Copeland
Z:Public Domain
Z:Courtesy of the Cyber Hymnal™
%%score ( 1 2 ) ( 3 4 )
L:1/8
Q:1/4=105
M:4/4
K:Bb
V:1 treble 
V:2 treble 
V:3 bass 
V:4 bass 
V:1
 [DF][DF] | [FB]2 [FB]2 [FB][EG][DF][EG] | [DB]2 [EG]2 [DF]2 Bc | d6 [=EB][EB] | c6 [Fd][_Ec] | %5
w: 1.~When the|King a- wak- ened in His|low- ly grave, He a-|rose, He a-|rose; He a-|
w: 2.~There were|an- gels watch- ing by His|hum- ble bed, He a-|rose, He a-|rose; When He|
w: 3.~Je- sus|took a- way from death its|aw- ful sting; He a-|rose, He a-|rose, In the|
w: 4.~He a-|rose, and now He reigns, a|king on high, He a-|rose, He a-|rose; He a-|
 [DB]2 [Fd]2 [DB][Ec][DB][Fc] | [GB]2 [EG]2 [DF]2 GB | d6 [Ec][Ec] | [DB]6 ||"^Refrain" FG | %10
w: rose a vic- tor, He a-|rose to save; He a-|rose, He a-|rose.||
w: laid a- side the vest- ments|of the dead; He a-|rose, He a-|rose.||
w: dark, dark val- ley now His|child can sing; He a-|rose, He a-|rose.||
w: rose a vic- tor, so by|grace, shall I; He a-|rose, He a-|rose.|He a-|
 B4 [EG][EG] x2 | F6 Bc | d6 [=Ec][Ed] | c6 [Fd][_Ec] | [DB]2 [Fd]2 [Fd][Ec][DB][Fc] | %15
w: |||||
w: |||||
w: |||||
w: rose from the|grave; From its|power He will|save He will|save His peo- ple from the|
 [GB]2 [EG]2 [DF]2 [Fd][DB] | d6 B[=Fc] | [FB]6 |] %18
w: |||
w: |||
w: |||
w: last of foes, He a-|rose, He a-|rose.|
V:2
 x2 | x8 | x8 | (F2 G2 F2) x2 | (F2 =EE F2) x2 | x8 | x8 | (F2 G2 F2) x2 | x6 || x2 | %10
 (D2 E2 D2) x2 | (D2 DE F2) x2 | (F2 ^F2 G2) x2 | (F2 =E2 F2) x2 | x8 | x8 | (F2 ^F2 G2) B x | %17
 x6 |] %18
V:3
 [B,,B,][B,,B,] | [B,,D]2 [B,,D]2 [B,,D][B,,B,][B,,B,][B,,B,] | [B,,F,]2 [B,,B,]2 [B,,B,]2 z2 | %3
w: ~ ~|~ ~ ~ ~ ~ ~|~ ~ ~|
 B,2 [G,B,]2 [D,B,]2 [G,B,][G,B,] | [F,A,]2 [C,B,][C,B,] [F,A,]2 [B,,B,][B,,B,] | %5
w: He a- rose, from the|grave, He a- rose ~ ~|
 [B,,F,]2 [B,,B,]2 [B,,F,][B,,F,][B,,F,][D,B,] | [E,B,]2 [E,B,]2 [B,,B,]2 z2 | %7
w: ~ ~ ~ ~ ~ ~|~ ~ ~|
 B,2 [G,B,]2 [D,B,]2 [F,A,][F,A,] | [B,,B,]6 || z2 | [B,,F,]2 [B,,G,]2 [B,,B,]2 [E,B,][E,B,] | %11
w: He a- rose, ~ ~|~||He a- rose, He a-|
 [B,,B,]2 [B,,B,][C,A,] [D,B,]2 z2 | B,2 [A,C]2 [G,B,]2 [C,G,][C,B,] | %13
w: rose from the grave;|From its power, He will|
 [F,A,]2 [G,B,]2 [F,A,]2 [B,,B,][B,,B,] | [B,,B,]2 [B,,B,]2 [B,,B,][B,,F,][B,,F,][D,B,] | %15
w: save, will save ~ ~|~ ~ ~ ~ ~ ~|
 [E,B,]2 [E,B,]2 [B,,B,]2 z2 | B,2 [A,C]2 [G,B,]2 [F,E][F,F] | [B,,D]6 |] %18
w: ~ ~ ~|He a- rose, * *||
V:4
 x2 | x8 | x8 | B,2 x6 | x8 | x8 | x8 | B,2 x6 | x6 || x2 | x8 | x8 | B,2 x6 | x8 | x8 | x8 | %16
 B,2 x6 | x6 |] %18

